markets/MSFT.svg

<svg width="42" height="42" viewBox="0 0 42 42" fill="none" xmlns="http://www.w3.org/2000/svg">
<circle cx="21" cy="21" r="21" fill="#06061B"/>
<circle cx="21" cy="21" r="21" fill="white"/>
<path d="M8.44568 8.44568H20.3771V20.3771H8.44568V8.44568Z" fill="#F25022"/>
<path d="M21.6228 8.44568H33.5542V20.3771H21.6228V8.44568Z" fill="#7FBA00"/>
<path d="M8.44568 21.6229H20.3771V33.5544H8.44568V21.6229Z" fill="#00A4EF"/>
<path d="M21.6228 21.6229H33.5542V33.5544H21.6228V21.6229Z" fill="#FFB900"/>
</svg>

<svg xmlns="http://www.w3.org/2000/svg" width="42" height="42" fill="none"><circle cx="21" cy="21" r="21" fill="#06061B"/><circle cx="21" cy="21" r="21" fill="#fff"/><path fill="#F25022" d="M8.446 8.446h11.931v11.931H8.446V8.446Z"/><path fill="#7FBA00" d="M21.623 8.446h11.931v11.931H21.623V8.446Z"/><path fill="#00A4EF" d="M8.446 21.623h11.931v11.931H8.446V21.623Z"/><path fill="#FFB900" d="M21.623 21.623h11.931v11.931H21.623V21.623Z"/></svg>
